X:72
T:Jacobites in their hiding places, The
T:Nach bochd a bhi 'm falach
R:Slow Air
S:Simon Fraser Collection
N:No.122
O:Scottish
M:6/8
L:1/8
Q:3/8=70
K:B_
f/e/|d2 c/B/ fdB|cBA G2A|BGG D2B,|D/E/FF F2f|d2 c/B/ fdB|cBA G2A|
B/c/dF D2C|DBA G2:|
f|dBf dBg|dBb fdB|dBf dBg|dBd f2e|dBf dBg|dBb fdB|bag d2c|dg^f g2 f/e/|
dBf dBg|dBb fdB|dBf dBg|dBd f2g/a/|b>ag afd|g>fd fdc|B/c/dF D2 C|
DBA G2||

